src/images/mail.svg

<?xml version="1.0" ?><svg height="60px" version="1.1" viewBox="0 0 60 60" width="60px" xmlns="http://www.w3.org/2000/svg" xmlns:sketch="http://www.bohemiancoding.com/sketch/ns" xmlns:xlink="http://www.w3.org/1999/xlink"><title/><defs/><g fill="none" fill-rule="evenodd" id="gloss" stroke="none" stroke-width="1"><g id="mail"><path d="M30,60 C46.5685433,60 60,46.5685433 60,30 C60,13.4314567 46.5685433,0 30,0 C13.4314567,0 0,13.4314567 0,30 C0,46.5685433 13.4314567,60 30,60 Z" fill="#3498DB"/><path d="M51.2132037,8.78679626 C56.6421358,14.2157283 60,21.7157283 60,30 C60,46.5685433 46.5685433,60 30,60 C21.7157283,60 14.2157283,56.6421358 8.78679626,51.2132037 L51.2132037,8.78679626 Z" fill="#000000" fill-opacity="0.400000006"/><path d="M30,33.4615385 L47.3076923,18.4615385 L12.6923077,18.4615385 L30,33.4615385 Z M25.3251765,31.8010536 L30,35.6382399 L34.6015813,31.8010536 L47.3076923,42.6923077 L12.6923077,42.6923077 L25.3251765,31.8010536 Z M11.5384615,41.5384615 L11.5384615,19.6153846 L24.2307692,30.5769231 L11.5384615,41.5384615 Z M48.4615385,41.5384615 L48.4615385,19.6153846 L35.7692308,30.5769231 L48.4615385,41.5384615 Z" fill="#FFFFFF"/></g></g></svg>

<svg width="60" height="60" xmlns="http://www.w3.org/2000/svg">
 <title/>

 <g>
  <title>background</title>
  <rect fill="none" id="canvas_background" height="402" width="582" y="-1" x="-1"/>
 </g>
 <g>
  <title>Layer 1</title>
  <path id="svg_1" fill="#3f72b0" d="m30,60c16.56854,0 30,-13.43146 30,-30c0,-16.56854 -13.43146,-30 -30,-30c-16.56854,0 -30,13.43146 -30,30c0,16.56854 13.43146,30 30,30z"/>
  <path id="svg_2" fill="#FFFFFF" d="m30,33.46154l17.30769,-15l-34.61538,0l17.30769,15zm-4.67482,-1.66049l4.67482,3.83719l4.60158,-3.83719l12.70611,10.89126l-34.61538,0l12.63287,-10.89126zm-13.78672,9.73741l0,-21.92308l12.69231,10.96154l-12.69231,10.96154zm36.92308,0l0,-21.92308l-12.69231,10.96154l12.69231,10.96154z"/>
 </g>
</svg>
